X:230
T: Over the Moor to Maggie HP
S: "Roche Collection of Traditional Irish Music" [II/17/230]
L: 1/8
M: 4/4
R: hornpipe
K: D
FE | D2 DE F2 ED | E2 e2 e2 de | fedB AFEF | DEFA dBAF |
D2 DE F2 ED | E2 e2 e2 de | fedB AFEF | D2 d2 d2 :|
z2 | d2 g2 fgaf | defg a2 gf | efga bagf | efga b2 a2 |
gfga bagf | gfed BcdB | AFdB AFEF | D2 d2 d2 :|

